Catalina-light/actions/22/automated-tasks.svg

<svg xmlns="http://www.w3.org/2000/svg" viewBox="0 0 22 22">
  <defs id="defs3051">
    <style type="text/css" id="current-color-scheme">
      .ColorScheme-Text {
        color:#4d4d4d;
      }
      .ColorScheme-Highlight {
        color:#3daee9;
      }
      </style>
  </defs>
 <path 
       style="fill:currentColor;fill-opacity:1;stroke:none"
	 class="ColorScheme-Text"
        d="M 10.958984 3 C 10.534954 3 10.191406 3.3457275 10.191406 3.7734375 C 10.191256 4.0596175 10.347442 4.3075663 10.576172 4.4414062 L 10.570312 4.4414062 L 10.570312 5.2363281 L 11.300781 5.2363281 L 11.300781 4.4648438 C 11.552171 4.3373938 11.726562 4.0765775 11.726562 3.7734375 C 11.726562 3.3457275 11.383164 3 10.958984 3 z M 11 5.6347656 C 10.43718 5.6551556 9.7876419 5.7650631 9.0761719 6.0332031 C 6.6809619 6.9363231 6.5273438 9.8398438 6.5273438 9.8398438 L 6.5273438 11.431641 C 5.8935838 11.473671 5.3925781 12.004987 5.3925781 12.654297 L 5.3925781 15.945312 C 5.1352781 16.070303 4.9550781 16.333325 4.9550781 16.640625 C 4.9550781 17.068415 5.2989063 17.415946 5.7226562 17.416016 C 6.1468762 17.416016 6.4902344 17.068415 6.4902344 16.640625 C 6.4902344 16.333695 6.3118875 16.070303 6.0546875 15.945312 L 6.0546875 13.744141 C 6.1973875 13.818121 6.3585038 13.8634 6.5273438 13.875 L 6.5273438 14.638672 C 6.5233437 14.700502 6.5175781 14.762972 6.5175781 14.826172 C 6.5175781 14.893202 6.5223438 14.959091 6.5273438 15.025391 L 6.5273438 15.042969 C 6.6296038 16.317259 7.6179737 17.337323 8.8710938 17.476562 L 8.8691406 17.494141 L 11 17.494141 L 13.130859 17.494141 L 13.128906 17.476562 C 14.382076 17.337322 15.370396 16.317289 15.472656 15.042969 L 15.474609 15.042969 L 15.474609 15.025391 C 15.479609 14.959061 15.482422 14.893172 15.482422 14.826172 C 15.482422 14.762822 15.478609 14.700472 15.474609 14.638672 L 15.474609 13.875 C 15.642819 13.86355 15.802622 13.817741 15.945312 13.744141 L 15.945312 15.945312 C 15.688573 16.070293 15.509766 16.333325 15.509766 16.640625 C 15.509766 17.068075 15.853384 17.414062 16.277344 17.414062 C 16.701304 17.414062 17.044922 17.068045 17.044922 16.640625 C 17.044922 16.333505 16.866645 16.070293 16.609375 15.945312 L 16.609375 12.654297 C 16.609375 12.005177 16.107929 11.473841 15.474609 11.431641 L 15.474609 9.8378906 C 15.474609 9.8378906 15.319478 6.9363231 12.923828 6.0332031 C 12.213058 5.7652131 11.56323 5.6551656 11 5.6347656 z M 10.958984 6.9355469 C 10.965084 6.9355469 10.972516 6.9355469 10.978516 6.9355469 C 10.984916 6.9355469 10.994 6.9355469 11 6.9355469 C 11.0059 6.9355469 11.013531 6.9355469 11.019531 6.9355469 C 11.026131 6.9355469 11.035016 6.9355469 11.041016 6.9355469 C 11.480116 6.9438769 12.59928 7.0838788 13.34375 7.7304688 C 14.11127 8.3971488 14.111328 9.4941406 14.111328 9.4941406 C 14.111328 10.483491 13.34375 10.548828 13.34375 10.548828 C 13.0764 10.633928 12.511789 10.591728 12.255859 10.548828 C 12.020459 10.508778 11.157061 10.433875 11.019531 10.421875 C 11.014731 10.422875 11.007 10.423498 11 10.423828 C 10.993 10.422828 10.985469 10.422395 10.980469 10.421875 C 10.843099 10.434115 9.9792806 10.508828 9.7441406 10.548828 C 9.4886606 10.591728 8.92345 10.633928 8.65625 10.548828 C 8.65625 10.548828 7.8886719 10.483301 7.8886719 9.4941406 C 7.8886719 9.4941406 7.8885 8.3971488 8.65625 7.7304688 C 9.4006 7.0838787 10.520334 6.9435469 10.958984 6.9355469 z M 8.9765625 8.8066406 C 8.6581725 8.8066406 8.4003906 9.0660687 8.4003906 9.3867188 C 8.4003906 9.7074888 8.6581725 9.96875 8.9765625 9.96875 C 9.2942025 9.96875 9.5527344 9.7074888 9.5527344 9.3867188 C 9.5527344 9.0660687 9.2941625 8.8066406 8.9765625 8.8066406 z M 12.943359 8.8066406 C 12.624969 8.8066406 12.367188 9.0659588 12.367188 9.3867188 C 12.367188 9.7072288 12.624939 9.9686 12.943359 9.96875 C 13.260889 9.96875 13.519531 9.7073787 13.519531 9.3867188 C 13.519531 9.0659587 13.260889 8.8066406 12.943359 8.8066406 z M 11.912109 12.21875 C 12.116299 12.21875 12.28125 12.386267 12.28125 12.591797 C 12.28125 12.797697 12.116299 12.964844 11.912109 12.964844 C 11.707589 12.964844 11.542969 12.797697 11.542969 12.591797 C 11.542969 12.386047 11.707589 12.21875 11.912109 12.21875 z M 12.822266 12.21875 C 13.026456 12.21875 13.191406 12.386267 13.191406 12.591797 C 13.191406 12.797697 13.026416 12.964844 12.822266 12.964844 C 12.618126 12.964844 12.451172 12.797697 12.451172 12.591797 C 12.451172 12.386047 12.618086 12.21875 12.822266 12.21875 z M 13.732422 12.21875 C 13.936612 12.21875 14.101562 12.386267 14.101562 12.591797 C 14.101562 12.797697 13.936612 12.964844 13.732422 12.964844 C 13.527902 12.964844 13.361328 12.797697 13.361328 12.591797 C 13.361328 12.386047 13.527902 12.21875 13.732422 12.21875 z M 9.0761719 17.666016 C 9.3559519 18.443446 10.092134 19 10.958984 19 C 11.825574 19 12.562137 18.443476 12.841797 17.666016 L 9.0761719 17.666016 z "
     />
</svg>

<svg viewBox="0 0 22 22" xmlns="http://www.w3.org/2000/svg">
<defs>
<style id="current-color-scheme" type="text/css">.ColorScheme-Text {
        color:#363636;
      }
      .ColorScheme-Highlight {
        color:#3daee9;
      }</style>
</defs>
<path class="ColorScheme-Text" d="m10.959 3c-0.42403 0-0.76758 0.34573-0.76758 0.77344-1.5e-4 0.28618 0.15604 0.53413 0.38477 0.66797h-0.00586v0.79492h0.73047v-0.77148c0.25139-0.12745 0.42578-0.38827 0.42578-0.69141 0-0.42771-0.3434-0.77344-0.76758-0.77344zm0.041016 2.6348c-0.56282 0.02039-1.2124 0.1303-1.9238 0.39844-2.3952 0.90312-2.5488 3.8066-2.5488 3.8066v1.5918c-0.63376 0.04203-1.1348 0.57335-1.1348 1.2227v3.291c-0.2573 0.12499-0.4375 0.38801-0.4375 0.69531 0 0.42779 0.34383 0.77532 0.76758 0.77539 0.42422 0 0.76758-0.3476 0.76758-0.77539 0-0.30693-0.17835-0.57032-0.43555-0.69531v-2.2012c0.1427 0.07398 0.30382 0.11926 0.47266 0.13086v0.76367c-0.0040001 0.06183-0.0097657 0.1243-0.0097657 0.1875 0 0.06703 0.0047657 0.13292 0.0097657 0.19922v0.017578c0.10226 1.2743 1.0906 2.2944 2.3438 2.4336l-0.0019532 0.017579h2.1309 2.1309l-0.001953-0.017579c1.2532-0.13924 2.2415-1.1593 2.3438-2.4336h0.001953v-0.017578c5e-3 -0.06633 0.007813-0.13222 0.007813-0.19922 0-0.06335-0.003813-0.1257-0.007813-0.1875v-0.76367c0.16821-0.01145 0.32801-0.057259 0.4707-0.13086v2.2012c-0.25674 0.12498-0.43555 0.38801-0.43555 0.69531 0 0.42745 0.34362 0.77344 0.76758 0.77344s0.76758-0.34602 0.76758-0.77344c0-0.30712-0.17828-0.57033-0.43555-0.69531v-3.291c0-0.64912-0.50145-1.1805-1.1348-1.2227v-1.5938s-0.15513-2.9016-2.5508-3.8047c-0.71077-0.26799-1.3606-0.37804-1.9238-0.39844zm-0.041016 1.3008h0.019532 0.021484 0.019531 0.021485c0.4391 0.00833 1.5583 0.14833 2.3027 0.79492 0.76752 0.66668 0.76758 1.7637 0.76758 1.7637 0 0.98935-0.76758 1.0547-0.76758 1.0547-0.26735 0.0851-0.83196 0.0429-1.0879 0-0.2354-0.04005-1.0988-0.11495-1.2363-0.12695-0.0048 1e-3 -0.012531 0.001623-0.019531 0.001953-7e-3 -1e-3 -0.014531-0.001433-0.019531-0.001953-0.13737 0.01224-1.0012 0.086953-1.2363 0.12695-0.25548 0.0429-0.82069 0.0851-1.0879 0 0 0-0.76758-0.065527-0.76758-1.0547 0 0-1.719e-4 -1.097 0.76758-1.7637 0.74435-0.64659 1.8641-0.78692 2.3027-0.79492zm-1.9824 1.8711c-0.31839 0-0.57617 0.25943-0.57617 0.58008 0 0.32077 0.25778 0.58203 0.57617 0.58203 0.31764 0 0.57617-0.26126 0.57617-0.58203 0-0.32065-0.25857-0.58008-0.57617-0.58008zm3.9668 0c-0.31839 0-0.57617 0.25932-0.57617 0.58008 0 0.32051 0.25775 0.58188 0.57617 0.58203 0.31753 0 0.57617-0.26137 0.57617-0.58203 0-0.32076-0.25864-0.58008-0.57617-0.58008zm-1.0312 3.4121c0.20419 0 0.36914 0.16752 0.36914 0.37305 0 0.2059-0.16495 0.37305-0.36914 0.37305-0.20452 0-0.36914-0.16715-0.36914-0.37305 0-0.20575 0.16462-0.37305 0.36914-0.37305zm0.91016 0c0.20419 0 0.36914 0.16752 0.36914 0.37305 0 0.2059-0.16499 0.37305-0.36914 0.37305-0.20414 0-0.37109-0.16715-0.37109-0.37305 0-0.20575 0.16691-0.37305 0.37109-0.37305zm0.91016 0c0.20419 0 0.36914 0.16752 0.36914 0.37305 0 0.2059-0.16495 0.37305-0.36914 0.37305-0.20452 0-0.37109-0.16715-0.37109-0.37305 0-0.20575 0.16657-0.37305 0.37109-0.37305zm-4.6563 5.4473c0.27978 0.77743 1.016 1.334 1.8828 1.334 0.86659 0 1.6032-0.55652 1.8828-1.334h-3.7656z" fill="#363636"/>
</svg>
